X:572
T:Some Clues On the Blues
B:Easy Mandolin Solos
Z:Nigel Gatherer
L:1/8
M:4/4
K:D
d2 =F^F ABA=F | ^FAB=c- c4 | d2 =F^F ABA=F | ^FAB=c- c3 _B- |
=B2 dB edB_B- | =BdBe- ed B2 | d2 =F^F ABA=F | ^FAB=c- c3 c |
^c2 ec fec=c | ^cecf- fe c2 | d2 =F^F ABA=F | ^FAFD- D4 |]
